findly-builder/apps/searchassist/src/assets/icons/onboarding/acid.svg

<svg width="35" height="38" viewBox="0 0 35 38" fill="none" xmlns="http://www.w3.org/2000/svg">
<path d="M11.6673 19.8341C11.6673 20.6541 11.36 21.4405 10.813 22.0204C10.2661 22.6002 9.5242 22.926 8.75065 22.926C7.9771 22.926 7.23524 22.6002 6.68826 22.0204C6.14128 21.4405 5.83398 20.6541 5.83398 19.8341C5.83398 18.1337 8.75065 14.4238 8.75065 14.4238C8.75065 14.4238 11.6673 18.1337 11.6673 19.8341Z" fill="#00C92C"/>
<path d="M30.7061 21.2567C30.4349 21.6748 30.0884 22.032 29.6866 22.3077C29.2847 22.5835 28.8355 22.7724 28.3646 22.8636C27.8938 22.9548 27.4106 22.9465 26.9427 22.8392C26.4749 22.7319 26.0316 22.5278 25.6384 22.2384L14.9634 14.4238L10.377 11.069L14.4165 4.64581C14.435 4.65314 14.4522 4.66358 14.4676 4.67673L27.7822 14.4238L29.7801 15.8847C30.1739 16.1727 30.5102 16.5403 30.7699 16.9663C31.0296 17.3922 31.2075 17.8683 31.2935 18.3672C31.3795 18.8661 31.3719 19.3781 31.2711 19.874C31.1703 20.3698 30.9783 20.8396 30.7061 21.2567Z" fill="#35C1F1"/>
<path d="M30.7056 21.2567C30.4343 21.6748 30.0879 22.032 29.686 22.3077C29.2842 22.5835 28.835 22.7724 28.3641 22.8636C27.8933 22.9548 27.41 22.9465 26.9422 22.8392C26.4743 22.7319 26.0311 22.5278 25.6379 22.2384L14.9629 14.4238H27.7816L29.7796 15.8847C30.1733 16.1727 30.5097 16.5403 30.7694 16.9663C31.029 17.3922 31.207 17.8683 31.293 18.3672C31.379 18.8662 31.3714 19.3782 31.2706 19.874C31.1698 20.3698 30.9778 20.8396 30.7056 21.2567Z" fill="#00C92C"/>
<path d="M10.2066 12.8779C9.94187 12.8776 9.6822 12.8008 9.45546 12.6559C9.22872 12.511 9.04346 12.3035 8.91956 12.0554C8.79566 11.8074 8.73779 11.5283 8.75215 11.2481C8.76651 10.9678 8.85256 10.697 9.00107 10.4647L9.16912 10.202L13.3654 3.52464C13.579 3.18416 13.9111 2.94726 14.2891 2.86578C14.6671 2.78431 15.0602 2.8649 15.3822 3.08991C15.7043 3.31493 15.9292 3.66603 16.0076 4.06639C16.086 4.46674 16.0116 4.88372 15.8007 5.22606L15.6326 5.4963L11.415 12.1993C11.2813 12.4086 11.1012 12.5799 10.8906 12.6982C10.6799 12.8165 10.445 12.8782 10.2066 12.8779Z" fill="#50E6FF"/>
<path d="M27.7083 21.3804C28.5137 21.3804 29.1667 20.6883 29.1667 19.8345C29.1667 18.9807 28.5137 18.2886 27.7083 18.2886C26.9029 18.2886 26.25 18.9807 26.25 19.8345C26.25 20.6883 26.9029 21.3804 27.7083 21.3804Z" fill="#9AF5B2"/>
<path d="M24.7917 17.5156C25.1944 17.5156 25.5208 17.1696 25.5208 16.7427C25.5208 16.3158 25.1944 15.9697 24.7917 15.9697C24.389 15.9697 24.0625 16.3158 24.0625 16.7427C24.0625 17.1696 24.389 17.5156 24.7917 17.5156Z" fill="#9AF5B2"/>
<path d="M17.6633 26.7911C17.5865 26.7926 17.5119 26.8195 17.4501 26.8679C17.3883 26.9163 17.3422 26.984 17.3183 27.0614C17.1676 27.5135 16.9191 27.922 16.5928 28.2541C16.2665 28.5862 15.8713 28.8327 15.439 28.9739C15.0067 29.115 14.5492 29.147 14.1032 29.0671C13.6571 28.9873 13.2349 28.7978 12.8703 28.514C12.83 28.4844 12.7844 28.4637 12.7363 28.4534C12.6883 28.443 12.6387 28.4431 12.5907 28.4536C12.5427 28.4641 12.4971 28.4849 12.4569 28.5146C12.4167 28.5444 12.3825 28.5825 12.3566 28.6266C11.8812 29.3698 11.212 29.9501 10.4307 30.297C9.64934 30.6438 8.7897 30.742 7.9566 30.5798C7.1235 30.4175 6.35295 30.0017 5.73898 29.3831C5.12501 28.7645 4.69415 27.9699 4.49896 27.0961C4.48171 27.0106 4.43757 26.9339 4.37377 26.8785C4.30998 26.823 4.23031 26.7923 4.14784 26.7911H2.91667C2.72328 26.7911 2.53781 26.8726 2.40107 27.0175C2.26432 27.1625 2.1875 27.3591 2.1875 27.5641V32.2019C2.1875 32.6119 2.34115 33.0051 2.61464 33.295C2.88813 33.5849 3.25906 33.7478 3.64583 33.7478H31.3542C31.7409 33.7478 32.1119 33.5849 32.3854 33.295C32.6589 33.0051 32.8125 32.6119 32.8125 32.2019V27.5641C32.8125 27.3591 32.7357 27.1625 32.5989 27.0175C32.4622 26.8726 32.2767 26.7911 32.0833 26.7911H17.6633Z" fill="url(#paint0_linear_629_29290)"/>
<defs>
<linearGradient id="paint0_linear_629_29290" x1="14.6154" y1="21.5497" x2="23.5703" y2="44.7589" gradientUnits="userSpaceOnUse">
<stop stop-color="#6D6D6D"/>
<stop offset="0.126" stop-color="#626262"/>
<stop offset="0.987" stop-color="#464646"/>
<stop offset="0.998" stop-color="#454545"/>
</linearGradient>
</defs>
</svg>

<svg width="35" height="38" fill="none" xmlns="http://www.w3.org/2000/svg"><path d="M11.667 19.834c0 .82-.307 1.607-.854 2.186a2.835 2.835 0 0 1-2.062.906 2.836 2.836 0 0 1-2.063-.906 3.189 3.189 0 0 1-.854-2.186c0-1.7 2.917-5.41 2.917-5.41s2.916 3.71 2.916 5.41Z" fill="#00C92C"/><path d="M30.706 21.257a3.741 3.741 0 0 1-1.02 1.05 3.518 3.518 0 0 1-1.321.557 3.46 3.46 0 0 1-1.422-.025 3.533 3.533 0 0 1-1.305-.6l-10.675-7.815-4.586-3.355 4.04-6.423a.182.182 0 0 1 .05.03l13.315 9.748 1.998 1.46c.394.289.73.656.99 1.082.26.426.438.902.524 1.401.085.5.078 1.011-.023 1.507a3.97 3.97 0 0 1-.565 1.383Z" fill="#35C1F1"/><path d="M30.706 21.257a3.741 3.741 0 0 1-1.02 1.05 3.517 3.517 0 0 1-1.322.557 3.46 3.46 0 0 1-1.422-.025 3.532 3.532 0 0 1-1.304-.6l-10.675-7.815h12.819l1.998 1.46c.393.289.73.656.99 1.082.259.426.437.902.523 1.401a4.087 4.087 0 0 1-.022 1.507 3.989 3.989 0 0 1-.565 1.383Z" fill="#00C92C"/><path d="M10.207 12.878c-.265 0-.525-.077-.752-.222a1.512 1.512 0 0 1-.535-.6A1.623 1.623 0 0 1 9 10.464l.168-.263 4.196-6.677c.214-.34.546-.578.924-.66.378-.08.771 0 1.093.225.322.225.547.576.626.976.078.4.004.818-.207 1.16l-.168.27-4.218 6.703a1.49 1.49 0 0 1-.524.5 1.4 1.4 0 0 1-.684.179Z" fill="#50E6FF"/><path d="M27.708 21.38c.806 0 1.459-.692 1.459-1.546 0-.853-.653-1.545-1.459-1.545-.805 0-1.458.692-1.458 1.545 0 .854.653 1.546 1.458 1.546Zm-2.916-3.864c.402 0 .729-.346.729-.773 0-.427-.327-.773-.73-.773-.402 0-.729.346-.729.773 0 .427.327.773.73.773Z" fill="#9AF5B2"/><path d="M17.663 26.791a.357.357 0 0 0-.213.077.392.392 0 0 0-.132.193c-.15.453-.399.861-.725 1.193a2.868 2.868 0 0 1-1.154.72 2.74 2.74 0 0 1-1.336.093 2.814 2.814 0 0 1-1.233-.553.35.35 0 0 0-.28-.06.352.352 0 0 0-.133.06.377.377 0 0 0-.1.113 4.428 4.428 0 0 1-1.926 1.67 4.136 4.136 0 0 1-2.474.283 4.28 4.28 0 0 1-2.218-1.197 4.698 4.698 0 0 1-1.24-2.287.39.39 0 0 0-.125-.218.352.352 0 0 0-.226-.087H2.917a.71.71 0 0 0-.516.226.797.797 0 0 0-.213.547v4.638c0 .41.153.803.427 1.093.273.29.644.453 1.03.453h27.71c.386 0 .757-.163 1.03-.453.274-.29.428-.683.428-1.093v-4.638a.797.797 0 0 0-.214-.547.709.709 0 0 0-.516-.226h-14.42Z" fill="url(#a)"/><defs><linearGradient id="a" x1="14.615" y1="21.55" x2="23.57" y2="44.759" gradientUnits="userSpaceOnUse"><stop stop-color="#6D6D6D"/><stop offset=".126" stop-color="#626262"/><stop offset=".987" stop-color="#464646"/><stop offset=".998" stop-color="#454545"/></linearGradient></defs></svg>
